X:172
T: Vor Zeiten und jetzt
N: A0210
O: Europa, Mitteleuropa, Deutschland
N: 68 Lieder. Nuernberg bei Berg und Newber 1542 No. 42.
R: Romanze, Ballade, Lied
M: 4/2
L: 1/4
K: A
z2A2A2A2 | =G4A2=c2- | c2BAB2B2 | =G4
=c2B2 | BAA4G2 | A6
z2A2A2A2 | =G4A2=c2- | c2BAB2B2 | =G4
=c2B2 | BAA4G2 | A4
=c2 | B4A2 | =G4A2 | E2E2D2 | E4
=c2 | B4A2 | =G4A2 | E2E2D2 | E4z2
A2 | A2A2A2B2 | =c3BA2 | B3A=G4
A4=c2B2 | BAA4G2 | A8

